images/gallery-title.svg

<svg width="1490" height="132" viewBox="0 0 1490 134" fill="none" xmlns="http://www.w3.org/2000/svg">
<path fill-rule="evenodd" clip-rule="evenodd" d="M67.1385 100.922H45.6809L37.8137 131.492H12.0685L19.9356 100.922H0.50647V77.9402H25.869L32.559 52.0465H13.3135V29.0644H38.4922L45.8105 0.507812H71.7384L64.4201 29.0644H85.6951L93.0133 0.507812H119.124L111.806 29.0644H131.053V52.0465H105.69L99.0003 77.9402H118.246V100.922H93.0667L85.1996 131.492H59.2713L67.1385 100.922ZM51.4851 78.2672H73.2768L80.0742 51.5114H58.2825L51.4851 78.2672ZM147.754 131.492V0.507812H202.112C245.886 0.507812 273.872 24.7196 273.872 66.0001C273.872 106.687 245.498 131.492 202.112 131.492H147.754ZM178.659 29.2944V104.928H200.611C225.151 104.928 240.752 90.5686 240.752 67.111C240.752 43.0657 225.523 29.2944 200.611 29.2944H178.659ZM388.92 78.3518L418.149 131.492H384.44L357.16 82.0675H322.502V131.492H290.573V0.507812H366.734C396.292 0.507812 413.251 15.0835 413.251 41.8368C413.251 59.7232 404.622 72.3713 388.92 78.3518ZM322.585 28.1836V54.9394H363.243C374.671 54.9394 380.25 50.5779 380.25 41.8373C380.25 32.3229 374.914 28.1836 363.243 28.1836H322.585ZM434.499 131.492V0.507812H466.511V131.492H434.499ZM521.188 42.8179V131.127H489.855V0.507812H525.862L586.478 78.9366V0.507812H617.08V131.492H591.123L521.188 42.8179ZM672.291 73.7921V131.492H640.424V0.507812H672.291V56.0305L730.568 0.507812H772.147L706.09 63.6259L775.024 131.492H731.472L672.291 73.7921ZM865.576 83.3531L898.17 0.507812H942.574V131.31H911.55V35.3517L874.34 131.492H852.784L816.124 36.1008V131.31H786.564V0.507812H832.981L865.576 83.3531ZM995.937 27.1509V49.5666H1042.4V76.7589H995.937V103.568H1080.96V131.492H963.704V0.507812H1073.8V27.1509H995.937ZM1169.38 28.6154V131.492H1137.67V28.6154H1088.81V0.507812H1218.25V28.6154H1169.38ZM1309.99 28.6154V131.492H1278.28V28.6154H1229.41V0.507812H1358.85V28.6154H1309.99ZM1446.15 109.008H1385.15L1375.48 131.492H1343.18L1400.36 0.507812H1432.76L1489.76 131.492H1455.82L1446.15 109.008ZM1396.76 82.7106H1435.07L1415.92 38.9374L1396.76 82.7106Z" stroke="#14C5C4"/>
</svg>

<svg width="1490" height="132" viewBox="0 0 1490 134" fill="none" xmlns="http://www.w3.org/2000/svg"><path clip-rule="evenodd" d="M67.138 100.922H45.681l-7.867 30.57H12.069l7.867-30.57H.506V77.94H25.87l6.69-25.893H13.314V29.064h25.178L45.811.508h25.927L64.42 29.064h21.275L93.013.508h26.111l-7.318 28.556h19.247v22.983H105.69L99 77.94h19.246v22.982h-25.18l-7.866 30.57H59.27l7.867-30.57zM51.485 78.267h21.792l6.797-26.756H58.283l-6.798 26.756zm96.269 53.225V.508h54.358c43.774 0 71.76 24.212 71.76 65.492 0 40.687-28.374 65.492-71.76 65.492h-54.358zm30.905-102.198v75.634h21.952c24.54 0 40.141-14.36 40.141-37.817 0-24.045-15.229-37.817-40.141-37.817h-21.952zM388.92 78.352l29.229 53.14H384.44l-27.28-49.424h-34.658v49.424h-31.929V.508h76.161c29.558 0 46.517 14.576 46.517 41.329 0 17.886-8.629 30.534-24.331 36.515zm-66.335-50.168v26.755h40.658c11.428 0 17.007-4.361 17.007-13.102 0-9.514-5.336-13.653-17.007-13.653h-40.658zm111.914 103.308V.508h32.012v130.984h-32.012zm86.689-88.674v88.309h-31.333V.507h36.007l60.616 78.43V.507h30.602v130.985h-25.957l-69.935-88.674zm151.103 30.974v57.7h-31.867V.508h31.867V56.03L730.568.508h41.579L706.09 63.626l68.934 67.866h-43.552l-59.181-57.7zm193.285 9.561L898.17.508h44.404V131.31H911.55V35.352l-37.21 96.14h-21.556l-36.66-95.391v95.209h-29.56V.508h46.417l32.595 82.845zm130.361-56.202v22.416h46.463v27.192h-46.463v26.809h85.023v27.924H963.704V.508H1073.8V27.15h-77.863zm173.443 1.464v102.877h-31.71V28.615h-48.86V.508h129.44v28.107h-48.87zm140.61 0v102.877h-31.71V28.615h-48.87V.508h129.44v28.107h-48.86zm136.16 80.393h-61l-9.67 22.484h-32.3L1400.36.508h32.4l57 130.984h-33.94l-9.67-22.484zm-49.39-26.297h38.31l-19.15-43.774-19.16 43.774z" stroke="#14C5C4"/></svg>
